build/img/bg-header-mobile.svg

<svg width="2079" height="1214" fill="none" xmlns="http://www.w3.org/2000/svg"><path d="M601.755 65.909c23.15-38.88 69.522-57.368 113.072-45.082l888.833 250.741c39.44 11.127 68.11 45.196 72.32 85.962l76.19 737.17c6.42 62.1-45 114.83-107.24 109.98L321.065 1101.52C173.217 1090 88.889 927.219 164.76 799.8L601.755 65.909z" fill="#2F80ED" fill-opacity=".1"/><path d="M767.231 496.201A100.001 100.001 0 01837.934 449L1923 285.431c58.41-8.804 111.68 34.663 114.77 93.648l34.75 662.861c3.17 60.39-47.59 109.76-107.87 104.91L689.739 1044.42c-111.104-8.92-174.007-131.616-116.402-227.039l193.894-321.18z" fill="#2F80ED"/></svg>

<svg width="2079" height="1214" viewBox="0 0 2079 1214" fill="none" xmlns="http://www.w3.org/2000/svg">
<path d="M601.755 65.9085C624.905 27.0299 671.277 8.54127 714.827 20.8266L1603.66 271.568C1643.1 282.695 1671.77 316.764 1675.98 357.53L1752.17 1094.7C1758.59 1156.8 1707.17 1209.53 1644.93 1204.68L321.065 1101.52C173.217 1090 88.8893 927.219 164.76 799.8L601.755 65.9085Z" fill="#2F80ED" fill-opacity="0.1"/>
<path d="M767.231 496.201C782.605 470.735 808.519 453.434 837.934 449L1923 285.431C1981.41 276.627 2034.68 320.094 2037.77 379.079L2072.52 1041.94C2075.69 1102.33 2024.93 1151.7 1964.65 1146.85L689.739 1044.42C578.635 1035.5 515.732 912.804 573.337 817.381L767.231 496.201Z" fill="#2F80ED"/>
</svg>
